X: 1
T: Miss Mary Douglas    [A]
B: Wilson's Companion to the Ballroom, 1816
O: Thomas Wilson 1816
R: jig
Z: 2005 John Chambers <jc:trillian.mit.edu>
M: 6/8
L: 1/8
K: A
E "B"|\
"A"CDE E2A | "D"FDF "E7"E2D | "A"CDE EAc | "E7"c3 B2E |\
"A"CDE E2A | "D"FDF "E7"E2d | "A"cBA "E7"BAG | "A"A3- "^fine"A2 :|
c/d/ "C"|\
"A"efe a2e |  c3 A2c | "E"BcB e2B | G3 EFG |\
"F#m"A3 FGA | "E7"B3 GAB | "A"cde edc | "E7"BAG "^d.C."FED |]
